X:0587
T:The Excambey.
N:bar 8 printed as |FDD D2:: but the initial repeat is clearly marked
M:6/8
L:1/8
Q:3/8=120
I: :: ::
Z:Jack Campin * www.campin.me.uk * 2009
K:D
A|:ded B2c|dAG FED|GAG FGA|BGE E2B/c/|ded B2c|dAG FED|GAG EAG|FDD D3::
   FDD A2G|FGA B2A|ded Bcd|ecA A2B/c/|ded cAc|BgB A2F|GAG EAG|FDD D3:|
<end>
<start>
